exported-svg/scissors.svg

<svg height="24" viewBox="0 0 24 24" width="24" xmlns="http://www.w3.org/2000/svg"><path d="m11.7928932 12.5-3.19680765-3.19680767c-.58429027.4376059-1.309918.69680767-2.09608555.69680767-1.93299662 0-3.5-1.56700338-3.5-3.5s1.56700338-3.5 3.5-3.5 3.5 1.56700338 3.5 3.5c0 .78616755-.25920177 1.51179528-.69680767 2.09608555l3.19680767 3.19680765 7.6464466-7.64644659c.1952622-.19526215.5118446-.19526215.7071068 0 .1952621.19526215.1952621.51184463 0 .70710678l-11.55036107 11.55036111c.4376059.5842902.69680767 1.3099179.69680767 2.0960855 0 1.9329966-1.56700338 3.5-3.5 3.5s-3.5-1.5670034-3.5-3.5 1.56700338-3.5 3.5-3.5c.78616755 0 1.51179528.2592018 2.09608555.6968077zm-3.49726873-4.26053382c.43601232-.44999974.70437553-1.06339317.70437553-1.73946618 0-1.38071187-1.11928813-2.5-2.5-2.5s-2.5 1.11928813-2.5 2.5 1.11928813 2.5 2.5 2.5c.67607301 0 1.28946644-.26836321 1.73946618-.70437553.00853604-.00999182.01752952-.01972695.02698043-.02917786s.01918604-.01844439.02917786-.02698043zm-.05615829 8.46490932c-.44999974-.4360123-1.06339317-.7043755-1.73946618-.7043755-1.38071187 0-2.5 1.1192881-2.5 2.5s1.11928813 2.5 2.5 2.5 2.5-1.1192881 2.5-2.5c0-.676073-.26836321-1.2894664-.70437553-1.7394662-.00999182-.008536-.01972695-.0175295-.02917786-.0269804s-.01844439-.019186-.02698043-.0291779zm6.37730052-1.3705023c-.1954388-.1950854-.1957253-.5116677-.0006399-.7071065s.5116677-.1957253.7071065-.0006399l5.53 5.52c.1954388.1950854.1957253.5116677.0006399.7071065s-.5116677.1957253-.7071065.0006399z"/></svg>

<?xml version="1.0" encoding="UTF-8"?>
<svg width="24px" height="24px" viewBox="0 0 24 24" version="1.1" xmlns="http://www.w3.org/2000/svg" xmlns:xlink="http://www.w3.org/1999/xlink">
    <!-- Generator: Sketch 55.2 (78181) - https://sketchapp.com -->
    <title>scissors</title>
    <desc>Created with Sketch.</desc>
    <g id="scissors" stroke="none" stroke-width="1" fill="none" fill-rule="evenodd">
        <path d="M11.7928932,12.5 L8.59608555,9.30319233 C8.01179528,9.74079823 7.28616755,10 6.5,10 C4.56700338,10 3,8.43299662 3,6.5 C3,4.56700338 4.56700338,3 6.5,3 C8.43299662,3 10,4.56700338 10,6.5 C10,7.28616755 9.74079823,8.01179528 9.30319233,8.59608555 L12.5,11.7928932 L20.1464466,4.14644661 C20.3417088,3.95118446 20.6582912,3.95118446 20.8535534,4.14644661 C21.0488155,4.34170876 21.0488155,4.65829124 20.8535534,4.85355339 L9.30319233,16.4039145 C9.74079823,16.9882047 10,17.7138324 10,18.5 C10,20.4329966 8.43299662,22 6.5,22 C4.56700338,22 3,20.4329966 3,18.5 C3,16.5670034 4.56700338,15 6.5,15 C7.28616755,15 8.01179528,15.2592018 8.59608555,15.6968077 L11.7928932,12.5 Z M8.29562447,8.23946618 C8.73163679,7.78946644 9,7.17607301 9,6.5 C9,5.11928813 7.88071187,4 6.5,4 C5.11928813,4 4,5.11928813 4,6.5 C4,7.88071187 5.11928813,9 6.5,9 C7.17607301,9 7.78946644,8.73163679 8.23946618,8.29562447 C8.24800222,8.28563265 8.2569957,8.27589752 8.26644661,8.26644661 C8.27589752,8.2569957 8.28563265,8.24800222 8.29562447,8.23946618 Z M8.23946618,16.7043755 C7.78946644,16.2683632 7.17607301,16 6.5,16 C5.11928813,16 4,17.1192881 4,18.5 C4,19.8807119 5.11928813,21 6.5,21 C7.88071187,21 9,19.8807119 9,18.5 C9,17.823927 8.73163679,17.2105336 8.29562447,16.7605338 C8.28563265,16.7519978 8.27589752,16.7430043 8.26644661,16.7335534 C8.2569957,16.7241025 8.24800222,16.7143674 8.23946618,16.7043755 Z" id="scrissors-grouped" fill="#000000" fill-rule="nonzero"></path>
        <path d="M14.6167667,15.3338732 L20.1467667,20.8538732 C20.3422055,21.0489586 20.6587878,21.0486721 20.8538732,20.8532333 C21.0489586,20.6577945 21.0486721,20.3412122 20.8532333,20.1461268 L15.3232333,14.6261268 C15.1277945,14.4310414 14.8112122,14.4313279 14.6161268,14.6267667 C14.4210414,14.8222055 14.4213279,15.1387878 14.6167667,15.3338732 Z" id="Shape" fill="#000000" fill-rule="nonzero"></path>
    </g>
</svg>
